X:46
M:2/4
L:1/8
K:G
|: d>d def | g>fe>d | d>d def | gfe d>B | c>e dcB | A>ABG | Bcd efg | B>A G2 :|

